X:1
T:A Fond Kiss (Farewell to Nancy)
L:1/8
M:6/8
I:linebreak $
K:E
V:1 treble 
V:1
 E>FG G2 e | B>AG F2 G | E>FG G2 e | B>AG F2 E | E>FG G2 e | B>AG F2 G | E>FG G2 e |$ B>AG F2 E | %8
 e>fg B2 G | e>fg A2 F | e>fg c>de | B>AG F2 E | e>fg B2 G | e>fg A2 F |$ e>fg c>de | B>AG F2 E |] %16
